X: 26284
T: Melting
R: waltz
M: 3/4
K: Gmajor
M:11/8
|:B2d A2B G2A EG|D2B,2 DEGD EGA|B2d A2B G2c Bd|B2A2 dBAE Acd|
e2d e2g a2e gd|B2A2 dBAD GBd|g2a e2g d2c BG|1 D2d2 BAG DEGA:|2 D2d2 BAG BABd||
e3 g3 eag fd|e3 a3 bag fd|e3 g3 eag fd|efg afd fag fd|
e3 g3 eag fd|e3 a3 bag fd|e3 g3 edc BG|c2d2 BAG DEGA||


